!!!COM: Franz Schubert
!!!CNT: Deutsch
!!!TXO: Deutsch
!!!OTL: "Der Flug der Zeit"
!!!LYR: Ludwig Graf von Szechenyi
!!!OPS: Op. 7
!!!ONM: No. 2
!!!ENC: Ben Fuhrman
!!!YOR: Schubert Lieder - Dietrich Fischer-Dieskau, and Elmar Budde, eds.
!!!YOR: New York: C. F. Peters, Vol. 2
!!!ODT: 1817/
!!NB: Only vocal melody encoded.
**kern
*clef G2
*k[f#c#g#]
*M6/8
!!created: 08/09/06 10:20
!!proofed and posted: 08/09/06 10:20
!!edit time: 20 minutes
=4
4r
8r
4r
{8e
=5
4.a
4.e
=6
4c
8e
8a
8ee
8cc
=7
4.b
4.e}
=8
4r
8r
4r
{8e
=9
4.ccn
4.b
=10
4a
8b
8ccn
8b
8a
=11
4.e}
4r
8r
=12
4r
8r
4r
{8b
=13
4.ccn
4.gn
=14
8e
8fn
8gn
8fn
8e
8d
=15
(4cn
8e)
4d}
8r
=16
4r
8r
4r
{8gn
=17
4.ccn
4.gn
=18
8e
8fn
8gn
8fn
8e
8d
=19
4cn}
8r
4r
8r
=2-
4r
8r
4r
{8e
=21
[4.g
8g]
8f
8g
=22
[4.a
4a]
8a
=23
(4b
8cc)
(4dd
8ee)
=24
4.ee
4cc
8a
=25
[4.g
8g]
8dd
8g
=26
4.b
4a
8a
=27
(4b
8cc)
(4dd
8ee)
=28
4cc}
8r
4r
{8cc
=29
4.cc
4.b
=30
4.a#
4.g
=31
4.f
4.g
=32
(qb
4.a#)
4.g}
=33
4r
8r
4r
{8cc
=34
4.cc
4.b
=35
4.a
4.g
=36
[4.f
4f]
8g
=37
4g}
8r
4r
8r
!! rest to measure 39
=39
4r
8r
4r
{8e
=40
4.a
4.e
=41
4c
8e
8a
8ee
8cc
=42
4.b
4.e}
=43
4r
8r
4r
{8e
=44
4.cc
4.b
=45
4a
8a
8cc
8b
8a
=46
4.e}
4r
8r
=47
4r
8r
4r
{8e
=48
[4.ccn
4ccn]
8a
=49
4fn
8cn
4fn
8gn
=50
4.a
8fn}
8r
8r
=51
4r
8r
4r
{8ccn
=52
[4.cc
8cc]
8a
8e
=53
[4.e
8e]
8a
8cc
=54
[4.ee
8ee]
8dd
8b
=55
4a}
8r
4r
{8a
=56
[4.ccn
4ccn]
8a
=57
4fn
8cn
4fn
8gn
=58
4.a
8fn}
8r
8r
=59
4r
8r
4r
{8ccn
=60
[4.cc
8cc]
8a
8e
=61
[4.e
8e]
8a
8cc
=62
[4.ee
8ee]
8dd
8b
=63
4.a}
4r
8r
==
*-
